app/assets/images/whatsapp_white.svg

<svg width="24" height="24" viewBox="0 0 24 24" fill="none" xmlns="http://www.w3.org/2000/svg">
<path fill-rule="evenodd" clip-rule="evenodd" d="M18.3807 5.61628C16.6834 3.94186 14.3993 3 11.9895 3C7.06519 3 3 7.06047 3 11.9791C3 13.5279 3.461 15.014 4.23632 16.3326C4.25728 16.3953 4.25728 16.4581 4.25728 16.5L3.20955 20.2047C3.10477 20.5395 3.41909 20.8744 3.77532 20.7907L7.67288 19.8488C7.71478 19.8279 7.77765 19.8488 7.81956 19.8698C9.11874 20.5605 10.5227 21 12.0105 21C16.9558 21 21 16.9395 21 12.0209C21 9.59302 20.057 7.31163 18.3807 5.61628Z" fill="white"/>
<path fill-rule="evenodd" clip-rule="evenodd" d="M16.1386 13.8209C15.9081 13.7162 14.7975 13.172 14.6089 13.0883C14.4203 13.0046 14.2527 12.9837 14.106 13.193C13.9593 13.4232 13.5193 13.9255 13.3936 14.072C13.2678 14.2185 13.1212 14.2395 12.9116 14.1348C12.6811 14.0302 11.9687 13.779 11.1095 13.0255C10.439 12.4395 9.97797 11.686 9.85224 11.4767C9.72652 11.2464 9.83129 11.1209 9.95702 11.0162C10.0618 10.9116 10.1875 10.7441 10.2923 10.6185C10.3971 10.493 10.439 10.3883 10.5228 10.2418C10.6066 10.0953 10.5647 9.9697 10.5018 9.84412C10.439 9.73947 9.99893 8.63017 9.81034 8.1697C9.60079 7.7511 9.4122 7.81389 9.28647 7.81389C9.16074 7.81389 9.01406 7.81389 8.86738 7.81389C8.7207 7.81389 8.46924 7.87668 8.2597 8.08598C8.05015 8.31622 7.48438 8.8604 7.48438 9.9697C7.48438 11.079 8.28065 12.1464 8.40638 12.293C8.51115 12.4395 9.99893 14.7209 12.2411 15.6837C12.7649 15.9139 13.205 16.0604 13.5193 16.1651C14.0641 16.3325 14.5461 16.3116 14.9442 16.2488C15.3633 16.186 16.2853 15.7046 16.4739 15.1813C16.6625 14.6581 16.6625 14.1976 16.5996 14.1139C16.5158 14.0092 16.3691 13.9464 16.1386 13.8209Z" fill="#01049B"/>
</svg>

<svg width="24" height="24" fill="none" xmlns="http://www.w3.org/2000/svg"><path fill-rule="evenodd" clip-rule="evenodd" d="M18.38 5.616A9.078 9.078 0 0011.99 3C7.064 3 3 7.06 3 11.98c0 1.548.461 3.034 1.236 4.353a.519.519 0 01.021.167L3.21 20.205c-.105.335.21.67.565.586l3.898-.942c.042-.021.105 0 .147.02C9.119 20.562 10.523 21 12.01 21c4.946 0 8.99-4.06 8.99-8.98a9.07 9.07 0 00-2.62-6.404z" fill="#fff"/><path fill-rule="evenodd" clip-rule="evenodd" d="M16.139 13.82c-.23-.104-1.341-.648-1.53-.732-.189-.083-.356-.104-.503.105-.147.23-.587.732-.712.879-.126.147-.273.168-.482.063-.23-.105-.943-.356-1.803-1.11-.67-.585-1.131-1.339-1.257-1.548-.125-.23-.02-.356.105-.46.105-.105.23-.273.335-.399.105-.125.147-.23.23-.376.085-.147.043-.272-.02-.398-.063-.105-.503-1.214-.692-1.674-.21-.419-.398-.356-.524-.356h-.419a.903.903 0 00-.607.272c-.21.23-.776.774-.776 1.884 0 1.109.797 2.176.922 2.323.105.147 1.593 2.428 3.835 3.39.524.23.964.377 1.278.482a3.09 3.09 0 001.425.084c.42-.063 1.341-.544 1.53-1.068.189-.523.189-.983.126-1.067-.084-.105-.23-.168-.461-.293z" fill="#01049B"/></svg>
